;FLAVOR:Marlin
;TIME:3025
;Filament used: 2.09879m
;Layer height: 0.2
;MINX:87.927
;MINY:87.927
;MINZ:0.2
;MAXX:147.073
;MAXY:147.073
;MAXZ:56.252
;Generated with Cura_SteamEngine 4.6.2
M82 ;absolute extrusion mode
; Ender 3 Custom Start G-code

; speed_z_hop = 5
; retraction_amount = 6.5
; retraction_hop = 0.2
; retraction_hop_enabled = True
; retraction_prime_speed = 25
; retraction_retract_speed = 25
; retraction_speed = 25
; speed_travel = 150.0
; retraction_enable = True
; layer_height = 0.2
; smooth_spiralized_contours = True
; magic_mesh_surface_mode = normal

M420 V; Output Current Mesh
G4 P6000; Wait .1 min for user to view mesh output

;Start Heating Procedure

G92 E0 ; Reset Extruder

M140 S55 ;set bed temperature
M190 S55 ;wait for bed temperature

M104 S140 ;set hotend temperature
M109 S140 ;wait for hotend temperature

G28 ;home all axis
M420 S1 ;

M104 S212 ;set hotend temperature
M109 S212 ;wait for hotend temperature

;End Heating Procedure

G1 Z2.0 F3000 ; Move Z Axis up little to prevent scratching of Heat Bed
G1 X0.1 Y50 Z0.3 F5000.0 ; Move to start position
G1 X0.1 Y200.0 Z0.3 F1500.0 E15 ; Draw the first line
G1 X0.4 Y200.0 Z0.3 F5000.0 ; Move to side a little
G1 X0.4 Y50 Z0.3 F1500.0 E30 ; Draw the second line
G92 E0 ; Reset Extruder
G1 Z2.0 F3000 ; Move Z Axis up little to prevent scratching of Heat Bed
G1 X2.5 Y50 Z0.3 F5000.0 ; Move over to prevent blob squish
G92 E0
G92 E0
G1 F1500 E-6.5
;LAYER_COUNT:235
;LAYER:0
M107
G1 F300 Z0.4
G0 F6000 X129.07 Y143.795 Z0.4
;TYPE:SKIRT
G1 F300 Z0.2
G1 F1500 E0
G1 F1200 X128.627 Y144.039 E0.01682
G1 X127.975 Y144.252 E0.03963
G1 X126.982 Y144.462 E0.07339
G1 X123.726 Y145.088 E0.18367
G1 X122.519 Y145.329 E0.22461
G1 X118.816 Y146.088 E0.35033
G1 X118.112 Y146.221 E0.37416
G1 X117.609 Y146.276 E0.39099
G1 X116.935 Y146.224 E0.41347
G1 X115.985 Y146.047 E0.44561
G1 X112.514 Y145.336 E0.56346
G1 X111.351 Y145.105 E0.6029
G1 X107.767 Y144.414 E0.72429
G1 X107.077 Y144.271 E0.74773
G1 X106.592 Y144.129 E0.76454
G1 X105.986 Y143.822 E0.78713
G1 X105.155 Y143.282 E0.8201
G1 X102.186 Y141.271 E0.93937
G1 X101.181 Y140.6 E0.97956
G1 X98.212 Y138.643 E1.09783
G1 X97.627 Y138.245 E1.12136
G1 X97.233 Y137.929 E1.13816
G1 X96.789 Y137.41 E1.16088
G1 X96.204 Y136.556 E1.19531
G1 X94.363 Y133.763 E1.30657
G1 X93.681 Y132.743 E1.34738
G1 X91.608 Y129.682 E1.47034
G1 X91.205 Y129.07 E1.49471
G1 X90.961 Y128.627 E1.51153
G1 X90.748 Y127.975 E1.53434
G1 X90.538 Y126.982 E1.5681
G1 X89.912 Y123.726 E1.67838
G1 X89.667 Y122.499 E1.72
G1 X88.912 Y118.816 E1.84504
G1 X88.779 Y118.112 E1.86887
G1 X88.724 Y117.609 E1.8857
G1 X88.776 Y116.936 E1.90815
G1 X88.961 Y115.94 E1.94184
G1 X89.683 Y112.417 E2.06146
G1 X89.914 Y111.259 E2.10073
G1 X90.584 Y107.779 E2.2186
G1 X90.728 Y107.078 E2.2424
G1 X90.87 Y106.593 E2.25921
G1 X91.179 Y105.983 E2.28195
G1 X91.718 Y105.155 E2.31481
G1 X93.729 Y102.186 E2.43408
G1 X94.411 Y101.165 E2.47492
G1 X96.357 Y98.212 E2.59255
G1 X96.755 Y97.627 E2.61608
G1 X97.071 Y97.233 E2.63288
G1 X97.589 Y96.79 E2.65555
G1 X98.433 Y96.211 E2.68959
G1 X101.22 Y94.374 E2.80061
G1 X102.257 Y93.681 E2.8421
G1 X105.318 Y91.608 E2.96506
G1 X105.93 Y91.205 E2.98943
G1 X106.373 Y90.961 E3.00625
G1 X107.025 Y90.748 E3.02906
G1 X108.018 Y90.538 E3.06282
G1 X111.274 Y89.912 E3.1731
G1 X112.496 Y89.668 E3.21454
G1 X116.184 Y88.912 E3.33976
G1 X116.888 Y88.779 E3.36359
G1 X117.391 Y88.724 E3.38042
G1 X118.065 Y88.776 E3.4029
G1 X119.015 Y88.953 E3.43504
G1 X122.486 Y89.664 E3.55289
G1 X123.649 Y89.895 E3.59232
G1 X127.233 Y90.586 E3.71372
G1 X127.923 Y90.729 E3.73716
G1 X128.408 Y90.871 E3.75397
G1 X129.014 Y91.178 E3.77656
G1 X129.845 Y91.718 E3.80952
G1 X132.796 Y93.717 E3.92807
G1 X133.819 Y94.4 E3.96899
G1 X136.788 Y96.357 E4.08726
G1 X137.367 Y96.75 E4.11053
G1 X137.762 Y97.066 E4.12736
G1 X138.211 Y97.59 E4.15031
G1 X138.773 Y98.411 E4.1834
G1 X140.625 Y101.22 E4.29531
G1 X141.318 Y102.257 E4.33679
G1 X143.391 Y105.318 E4.45975
G1 X143.796 Y105.933 E4.48424
G1 X144.04 Y106.376 E4.50106
G1 X144.254 Y107.029 E4.52392
G1 X144.464 Y108.028 E4.55787
G1 X145.082 Y111.243 E4.66676
G1 X145.321 Y112.443 E4.70746
G1 X146.093 Y116.205 E4.83519
G1 X146.222 Y116.889 E4.85834
G1 X146.276 Y117.392 E4.87516
G1 X146.224 Y118.065 E4.89762
G1 X146.047 Y119.015 E4.92976
G1 X145.332 Y122.505 E5.04824
G1 X145.105 Y123.649 E5.08704
G1 X144.414 Y127.233 E5.20844
G1 X144.271 Y127.923 E5.23187
G1 X144.129 Y128.408 E5.24868
G1 X143.822 Y129.014 E5.27128
G1 X143.282 Y129.845 E5.30424
G1 X141.271 Y132.814 E5.42351
G1 X140.589 Y133.835 E5.46435
G1 X138.643 Y136.788 E5.58197
G1 X138.245 Y137.373 E5.6055
G1 X137.929 Y137.767 E5.6223
G1 X137.411 Y138.21 E5.64497
G1 X136.567 Y138.789 E5.67902
G1 X133.78 Y140.626 E5.79004
G1 X132.743 Y141.319 E5.83152
G1 X129.682 Y143.392 E5.95448
G1 X129.07 Y143.795 E5.97885
G1 F1500 E-0.52115
G1 F300 Z0.4
G0 F6000 X138.576 Y137.598 Z0.4
G1 F300 Z0.2
G1 F1500 E5.97885
G1 F1200 X138.242 Y138.017 E5.99667
G1 X137.637 Y138.54 E6.02327
G1 X136.787 Y139.123 E6.05755
G1 X133.983 Y140.971 E6.16925
G1 X132.984 Y141.639 E6.20922
G1 X129.906 Y143.724 E6.33287
G1 X129.29 Y144.129 E6.35739
G1 X128.821 Y144.39 E6.37524
G1 X128.319 Y144.578 E6.39307
G1 X128.058 Y144.644 E6.40202
G1 X127.058 Y144.855 E6.43602
G1 X123.804 Y145.481 E6.54623
G1 X122.577 Y145.725 E6.58784
G1 X118.89 Y146.481 E6.71302
G1 X118.186 Y146.614 E6.73685
G1 X117.653 Y146.674 E6.75469
G1 X116.862 Y146.617 E6.78107
G1 X115.904 Y146.439 E6.81348
G1 X112.414 Y145.724 E6.93196
G1 X111.293 Y145.501 E6.96998
G1 X107.641 Y144.797 E7.09368
G1 X106.996 Y144.663 E7.11559
G1 X106.48 Y144.515 E7.13345
G1 X105.768 Y144.158 E7.15994
G1 X104.931 Y143.614 E7.19314
G1 X101.962 Y141.603 E7.31241
G1 X100.942 Y140.922 E7.3532
G1 X97.947 Y138.947 E7.47252
G1 X97.402 Y138.576 E7.49445
G1 X96.983 Y138.242 E7.51227
G1 X96.459 Y137.636 E7.53892
G1 X95.87 Y136.776 E7.57359
G1 X94.029 Y133.983 E7.68485
G1 X93.361 Y132.984 E7.72482
G1 X91.276 Y129.906 E7.84847
G1 X90.871 Y129.29 E7.87299
G1 X90.61 Y128.821 E7.89084
G1 X90.422 Y128.319 E7.90867
G1 X90.356 Y128.058 E7.91763
G1 X90.145 Y127.058 E7.95162
G1 X89.515 Y123.782 E8.06258
G1 X89.275 Y122.577 E8.10344
G1 X88.519 Y118.89 E8.22862
G1 X88.386 Y118.186 E8.25245
G1 X88.326 Y117.653 E8.27029
G1 X88.383 Y116.864 E8.2966
G1 X88.569 Y115.859 E8.3306
G1 X89.291 Y112.336 E8.45021
G1 X89.521 Y111.18 E8.48941
G1 X90.201 Y107.654 E8.60885
G1 X90.337 Y106.997 E8.63116
G1 X90.484 Y106.482 E8.64897
G1 X90.844 Y105.765 E8.67566
G1 X91.386 Y104.931 E8.70874
G1 X93.397 Y101.962 E8.82801
G1 X94.078 Y100.942 E8.8688
G1 X96.053 Y97.947 E8.98812
G1 X96.424 Y97.402 E9.01005
G1 X96.758 Y96.983 E9.02787
G1 X97.363 Y96.46 E9.05447
G1 X98.213 Y95.877 E9.08876
G1 X101.017 Y94.029 E9.20045
G1 X102.016 Y93.361 E9.24042
G1 X105.094 Y91.276 E9.36407
G1 X105.71 Y90.871 E9.38859
G1 X106.179 Y90.61 E9.40644
G1 X106.681 Y90.422 E9.42427
G1 X106.942 Y90.356 E9.43323
G1 X107.942 Y90.145 E9.46722
G1 X111.196 Y89.519 E9.57743
G1 X112.423 Y89.275 E9.61904
G1 X116.11 Y88.519 E9.74422
G1 X116.814 Y88.386 E9.76805
G1 X117.347 Y88.326 E9.78589
G1 X118.138 Y88.383 E9.81227
G1 X119.096 Y88.561 E9.84468
G1 X122.586 Y89.276 E9.96317
G1 X123.707 Y89.499 E10.00118
G1 X127.359 Y90.203 E10.12488
G1 X128.004 Y90.337 E10.14679
G1 X128.52 Y90.485 E10.16465
G1 X129.232 Y90.842 E10.19114
G1 X130.069 Y91.386 E10.22434
G1 X133.019 Y93.384 E10.34285
G1 X134.058 Y94.078 E10.3844
G1 X137.008 Y96.023 E10.50193
G1 X137.592 Y96.419 E10.5254
G1 X138.012 Y96.752 E10.54322
G1 X138.378 Y97.144 E10.56106
G1 X138.541 Y97.364 E10.57017
G1 X139.107 Y98.191 E10.6035
G1 X140.957 Y100.998 E10.71531
G1 X141.638 Y102.016 E10.75605
G1 X143.723 Y105.094 E10.8797
G1 X144.13 Y105.713 E10.90434
G1 X144.391 Y106.182 E10.92219
G1 X144.579 Y106.684 E10.94002
G1 X144.645 Y106.946 E10.94901
G1 X144.857 Y107.952 E10.9832
G1 X145.475 Y111.166 E11.09206
G1 X145.712 Y112.362 E11.13261
G1 X146.486 Y116.131 E11.26058
G1 X146.615 Y116.815 E11.28373
G1 X146.674 Y117.348 E11.30157
G1 X146.617 Y118.138 E11.32791
G1 X146.439 Y119.096 E11.36032
G1 X145.724 Y122.586 E11.47881
G1 X145.497 Y123.727 E11.51751
G1 X144.797 Y127.359 E11.64053
G1 X144.663 Y128.004 E11.66244
G1 X144.515 Y128.52 E11.68029
G1 X144.158 Y129.232 E11.70679
G1 X143.614 Y130.069 E11.73999
G1 X141.603 Y133.038 E11.85926
G1 X140.922 Y134.058 E11.90005
G1 X138.947 Y137.053 E12.01937
G1 X138.576 Y137.598 E12.0413
G1 F1500 E5.5413
G1 F300 Z0.4
G0 F6000 X118.21 Y87.99 Z0.4
G1 F300 Z0.2
G1 F1500 E12.0413
G1 F1200 X119.101 Y88.155 E12.07144
G1 X119.176 Y88.169 E12.07398
G1 X122.666 Y88.884 E12.19246
G1 X123.783 Y89.107 E12.23035
G1 X127.441 Y89.812 E12.35425
G1 X128.086 Y89.946 E12.37617
G1 X128.63 Y90.099 E12.39496
G1 X129.147 Y90.328 E12.41377
G1 X129.45 Y90.507 E12.42547
G1 X130.293 Y91.055 E12.45891
G1 X133.241 Y93.052 E12.57734
G1 X134.259 Y93.732 E12.61806
G1 X137.272 Y95.719 E12.7381
G1 X137.816 Y96.088 E12.75997
G1 X138.261 Y96.437 E12.77878
G1 X138.651 Y96.846 E12.79757
G1 X138.871 Y97.138 E12.80973
G1 X139.441 Y97.97 E12.84328
G1 X141.304 Y100.796 E12.95586
G1 X141.969 Y101.792 E12.99569
G1 X144.083 Y104.914 E13.12109
G1 X144.464 Y105.493 E13.14415
G1 X144.741 Y105.986 E13.16295
G1 X144.945 Y106.513 E13.18175
G1 X145.036 Y106.864 E13.19381
G1 X145.25 Y107.877 E13.22825
G1 X145.868 Y111.088 E13.33701
G1 X146.11 Y112.308 E13.37837
G1 X146.879 Y116.057 E13.50566
G1 X147.008 Y116.741 E13.52881
G1 X147.073 Y117.302 E13.5476
G1 X147.058 Y117.867 E13.56639
G1 X147.01 Y118.21 E13.57791
G1 X146.831 Y119.176 E13.61059
G1 X146.116 Y122.666 E13.72908
G1 X145.893 Y123.783 E13.76696
G1 X145.188 Y127.441 E13.89087
G1 X145.054 Y128.086 E13.91278
G1 X144.901 Y128.63 E13.93157
G1 X144.672 Y129.147 E13.95038
G1 X144.493 Y129.45 E13.96209
G1 X143.945 Y130.293 E13.99553
G1 X141.934 Y133.262 E14.1148
G1 X141.254 Y134.28 E14.15552
G1 X139.278 Y137.278 E14.27494
G1 X138.907 Y137.823 E14.29687
G1 X138.556 Y138.267 E14.31569
G1 X138.147 Y138.656 E14.33447
G1 X137.864 Y138.87 E14.34627
G1 X137.007 Y139.457 E14.38082
G1 X134.203 Y141.305 E14.49251
G1 X133.187 Y141.984 E14.53316
G1 X130.086 Y144.085 E14.65774
G1 X129.51 Y144.464 E14.68067
G1 X129.017 Y144.74 E14.69946
G1 X128.49 Y144.944 E14.71826
G1 X128.141 Y145.035 E14.73025
G1 X127.133 Y145.248 E14.76452
G1 X123.857 Y145.878 E14.87548
G1 X122.655 Y146.117 E14.91624
G1 X118.965 Y146.874 E15.04153
G1 X118.261 Y147.007 E15.06535
G1 X117.699 Y147.073 E15.08418
G1 X117.134 Y147.059 E15.10297
G1 X116.79 Y147.01 E15.11453
G1 X115.824 Y146.831 E15.14721
G1 X112.334 Y146.116 E15.26569
G1 X111.217 Y145.893 E15.30358
G1 X107.559 Y145.188 E15.42748
G1 X106.914 Y145.054 E15.44939
G1 X106.37 Y144.901 E15.46819
G1 X105.853 Y144.672 E15.487
G1 X105.55 Y144.493 E15.4987
G1 X104.707 Y143.945 E15.53214
G1 X101.738 Y141.934 E15.65141
G1 X100.72 Y141.254 E15.69213
G1 X97.722 Y139.278 E15.81156
G1 X97.177 Y138.907 E15.83348
G1 X96.733 Y138.556 E15.85231
G1 X96.344 Y138.147 E15.87108
G1 X96.129 Y137.862 E15.88296
G1 X95.536 Y136.996 E15.91787
G1 X93.695 Y134.203 E16.02913
G1 X93.016 Y133.187 E16.06977
G1 X90.915 Y130.086 E16.19435
G1 X90.536 Y129.51 E16.21729
G1 X90.26 Y129.017 E16.23608
G1 X90.056 Y128.49 E16.25487
G1 X89.965 Y128.141 E16.26687
G1 X89.752 Y127.133 E16.30114
G1 X89.122 Y123.857 E16.41209
G1 X88.883 Y122.655 E16.45285
G1 X88.126 Y118.965 E16.57814
G1 X87.993 Y118.261 E16.60197
G1 X87.927 Y117.699 E16.62079
G1 X87.941 Y117.134 E16.63959
G1 X87.99 Y116.791 E16.65111
G1 X88.177 Y115.779 E16.68534
G1 X88.899 Y112.256 E16.80495
G1 X89.129 Y111.102 E16.84409
G1 X89.809 Y107.573 E16.96362
G1 X89.945 Y106.916 E16.98594
G1 X90.098 Y106.372 E17.00473
G1 X90.327 Y105.855 E17.02354
G1 X90.508 Y105.547 E17.03542
G1 X91.055 Y104.707 E17.06876
G1 X93.066 Y101.738 E17.18803
G1 X93.746 Y100.72 E17.22875
G1 X95.722 Y97.722 E17.34817
G1 X96.093 Y97.177 E17.3701
G1 X96.444 Y96.733 E17.38893
G1 X96.853 Y96.344 E17.4077
G1 X97.136 Y96.13 E17.4195
G1 X97.993 Y95.543 E17.45405
G1 X100.797 Y93.695 E17.56575
G1 X101.813 Y93.016 E17.60639
G1 X104.914 Y90.915 E17.73097
G1 X105.49 Y90.536 E17.75391
G1 X105.983 Y90.26 E17.7727
G1 X106.51 Y90.056 E17.79149
G1 X106.859 Y89.965 E17.80349
G1 X107.867 Y89.752 E17.83776
G1 X111.143 Y89.122 E17.94871
G1 X112.345 Y88.883 E17.98947
G1 X116.035 Y88.126 E18.11476
G1 X116.739 Y87.993 E18.13859
G1 X117.301 Y87.927 E18.15741
G1 X117.866 Y87.941 E18.17621
G1 X118.21 Y87.99 E18.18776
G1 F1500 E11.68776
G1 F300 Z0.4
;MESH:HexSurfaceVase2.stl
G0 F6000 X117.5 Y142.888 Z0.4
;TYPE:WALL-OUTER
G1 F300 Z0.2
G1 F1500 E18.18776
G1 F1200 X113.029 Y141.971 E18.33957
G1 X112.663 Y141.82 E18.35273
G1 X112.266 Y141.819 E18.36594
G1 X107.785 Y140.956 E18.51772
G1 X104.005 Y138.396 E18.66956
G1 X103.724 Y138.118 E18.68271
G1 X103.363 Y137.966 E18.69573
G1 X99.548 Y135.452 E18.84769
G1 X97.036 Y131.64 E18.99953
G1 X96.882 Y131.276 E19.01268
G1 X96.605 Y130.996 E19.02578
G1 X94.044 Y127.215 E19.17767
G1 X93.182 Y122.734 E19.32944
G1 X93.18 Y122.337 E19.34264
G1 X93.03 Y121.973 E19.35574
G1 X92.112 Y117.5 E19.50761
G1 X93.029 Y113.029 E19.65941
G1 X93.18 Y112.663 E19.67258
G1 X93.181 Y112.266 E19.68579
G1 X94.044 Y107.785 E19.83756
G1 X96.604 Y104.005 E19.98941
G1 X96.882 Y103.724 E20.00255
G1 X97.034 Y103.363 E20.01558
G1 X99.548 Y99.548 E20.16754
G1 X103.36 Y97.036 E20.31938
G1 X103.724 Y96.882 E20.33253
G1 X104.004 Y96.605 E20.34563
G1 X107.785 Y94.044 E20.49752
G1 X112.266 Y93.182 E20.64929
G1 X112.663 Y93.18 E20.66249
G1 X113.027 Y93.03 E20.67559
G1 X117.5 Y92.112 E20.82746
G1 X121.971 Y93.029 E20.97926
G1 X122.337 Y93.18 E20.99243
G1 X122.734 Y93.181 E21.00564
G1 X127.215 Y94.044 E21.15741
G1 X130.995 Y96.604 E21.30926
G1 X131.276 Y96.882 E21.3224
G1 X131.637 Y97.034 E21.33543
G1 X135.452 Y99.548 E21.48739
G1 X137.964 Y103.36 E21.63923
G1 X138.118 Y103.724 E21.65238
G1 X138.395 Y104.004 E21.66548
G1 X140.956 Y107.785 E21.81737
G1 X141.818 Y112.266 E21.96914
G1 X141.82 Y112.663 E21.98234
G1 X141.97 Y113.027 E21.99544
G1 X142.888 Y117.5 E22.14731
G1 X141.971 Y121.971 E22.29911
G1 X141.82 Y122.337 E22.31228
G1 X141.819 Y122.734 E22.32548
G1 X140.956 Y127.215 E22.47726
G1 X138.396 Y130.995 E22.6291
G1 X138.118 Y131.276 E22.64225
G1 X137.966 Y131.637 E22.65528
G1 X135.452 Y135.452 E22.80724
G1 X131.64 Y137.964 E22.95908
G1 X131.276 Y138.118 E22.97223
G1 X130.996 Y138.395 E22.98533
G1 X127.215 Y140.956 E23.13722
G1 X122.734 Y141.818 E23.28899
G1 X122.337 Y141.82 E23.30219
G1 X121.973 Y141.97 E23.31529
G1 X117.5 Y142.888 E23.46716
G0 F6000 X117.5 Y142.49
;TYPE:SKIN
G1 F1200 X113.147 Y141.597 E23.61496
G1 X112.741 Y141.43 E23.62956
G1 X112.304 Y141.429 E23.64409
G1 X107.938 Y140.588 E23.79197
G1 X104.251 Y138.091 E23.94008
G1 X103.944 Y137.788 E23.95443
G1 X103.551 Y137.622 E23.96862
G1 X99.83 Y135.17 E24.11683
G1 X97.38 Y131.452 E24.26493
G1 X97.212 Y131.055 E24.27927
G1 X96.91 Y130.75 E24.29354
G1 X94.412 Y127.063 E24.44167
G1 X93.572 Y122.695 E24.58961
G1 X93.57 Y122.259 E24.60411
G1 X93.404 Y121.857 E24.61858
G1 X92.51 Y117.5 E24.76651
G1 X93.403 Y113.147 E24.91431
G1 X93.57 Y112.741 E24.92891
G1 X93.571 Y112.304 E24.94344
G1 X94.412 Y107.938 E25.09133
G1 X96.909 Y104.251 E25.23943
G1 X97.212 Y103.944 E25.25378
G1 X97.378 Y103.551 E25.26797
G1 X99.83 Y99.83 E25.41618
G1 X103.548 Y97.38 E25.56428
G1 X103.945 Y97.212 E25.57862
G1 X104.25 Y96.91 E25.59289
G1 X107.937 Y94.412 E25.74102
G1 X112.305 Y93.572 E25.88896
G1 X112.741 Y93.57 E25.90346
G1 X113.143 Y93.404 E25.91793
G1 X117.5 Y92.51 E26.06586
G1 X121.853 Y93.403 E26.21366
